assets/icons/localization.svg

<?xml version="1.0" encoding="UTF-8" standalone="no"?>
<svg viewBox="0 0 24 24" height="24" id="svg7384" version="1.1" width="24" sodipodi:docname="localization.svg" inkscape:version="1.1 (ce6663b3b7, 2021-05-25)"
   xmlns:inkscape="http://www.inkscape.org/namespaces/inkscape"
   xmlns:sodipodi="http://sodipodi.sourceforge.net/DTD/sodipodi-0.dtd"
   xmlns="http://www.w3.org/2000/svg"
   xmlns:svg="http://www.w3.org/2000/svg"
   xmlns:rdf="http://www.w3.org/1999/02/22-rdf-syntax-ns#"
   xmlns:cc="http://creativecommons.org/ns#"
   xmlns:dc="http://purl.org/dc/elements/1.1/">
   <sodipodi:namedview id="namedview24" pagecolor="#ffffff" bordercolor="#666666" borderopacity="1.0" inkscape:pageshadow="2" inkscape:pageopacity="0.0" inkscape:pagecheckerboard="0" showgrid="true" inkscape:snap-page="true" inkscape:zoom="22.627417" inkscape:cx="24.770834" inkscape:cy="10.982252" inkscape:window-width="1920" inkscape:window-height="1016" inkscape:window-x="0" inkscape:window-y="27" inkscape:window-maximized="1" inkscape:current-layer="svg7384">
      <inkscape:grid type="xygrid" id="grid894" />
   </sodipodi:namedview>
   <metadata id="metadata20854">
      <rdf:RDF>
         <cc:Work rdf:about="">
            <dc:format>image/svg+xml</dc:format>
            <dc:type rdf:resource="http://purl.org/dc/dcmitype/StillImage" />
         </cc:Work>
      </rdf:RDF>
   </metadata>
   <defs id="defs7386">
      <linearGradient id="linearGradient5606" inkscape:swatch="solid">
         <stop id="stop5608" offset="0" style="stop-color:#000000;stop-opacity:1;" />
      </linearGradient>
      <linearGradient id="linearGradient4526" inkscape:swatch="solid">
         <stop id="stop4528" offset="0" style="stop-color:#ffffff;stop-opacity:1;" />
      </linearGradient>
      <linearGradient id="linearGradient3600-4" inkscape:swatch="gradient">
         <stop id="stop3602-7" offset="0" style="stop-color:#f4f4f4;stop-opacity:1" />
         <stop id="stop3604-6" offset="1" style="stop-color:#dbdbdb;stop-opacity:1" />
      </linearGradient>
   </defs>
   <g id="layer9" label="status" style="display:inline;stroke-width:0.8" transform="matrix(1.25,0,0,1.25,-1064.2503,260.75)" />
   <g id="layer2" style="display:inline;stroke-width:0.8" transform="matrix(1.25,0,0,1.25,-763.00005,-198)" />
   <g id="layer4" style="display:inline;stroke-width:0.8" transform="matrix(1.25,0,0,1.25,-763.00005,-198)" />
   <g id="g1812" style="display:inline;stroke-width:0.8" transform="matrix(1.25,0,0,1.25,-763.00005,-198)" />
   <g id="g6217" style="display:inline;stroke-width:0.8" transform="matrix(1.25,0,0,1.25,-763.00005,-198)" />
   <g id="layer3" style="display:inline;stroke-width:0.8" transform="matrix(1.25,0,0,1.25,-763.00005,-198)" />
   <g id="layer1" style="display:inline;stroke-width:0.8" transform="matrix(1.25,0,0,1.25,-763.00005,-198)" />
   <path id="path1237" style="color:#000000;fill:#808080;fill-rule:evenodd;stroke-width:2;stroke-linecap:square;stroke-linejoin:round;-inkscape-stroke:none" d="m 11.5,2 c -5.2467051,0 -9.5,4.2532949 -9.5,9.5 0,5.246705 4.2532949,9.5 9.5,9.5 5.246705,0 9.5,-4.253295 9.5,-9.5 0,-5.2467051 -4.253295,-9.5 -9.5,-9.5 z m 1.238281,1.09375 c 3.982929,0.5868442 7.007872,3.8873751 7.246094,7.90625 h -3.998047 c -0.130909,-3.0202295 -1.432582,-5.8342736 -3.576172,-7.7167969 0.108027,-0.065522 0.21693,-0.1288002 0.328125,-0.1894531 z m -2.470703,0.00391 c 0.116083,0.063441 0.229176,0.1304736 0.341797,0.1992188 -2.147535,1.8765859 -3.4577644,4.6840762 -3.5957031,7.703125 h -3.9746094 c 0.2384192,-4.0117182 3.2538713,-7.3082649 7.2285155,-7.9023438 z m 1.230469,0.8242188 c 2.051673,1.6483069 3.346661,4.2416476 3.488281,7.078125 h -6.9726561 c 0.1412268,-2.8356721 1.4342511,-5.4295117 3.4843751,-7.078125 z m -8.4589845,8.078125 h 3.9746094 c 0.1382105,3.02495 1.4543639,5.836296 3.6093751,7.712891 -0.107295,0.06576 -0.215718,0.130455 -0.326172,0.191406 -3.986862,-0.581642 -7.0176491,-3.882395 -7.2578125,-7.904297 z m 4.9746094,0 h 6.9726561 c -0.136671,2.835987 -1.426172,5.43307 -3.474609,7.085938 -2.0573005,-1.647916 -3.3562034,-4.244987 -3.4980471,-7.085938 z m 7.9726561,0 h 3.97461 c -0.238419,4.011718 -3.253872,7.308265 -7.228516,7.902344 -0.110691,-0.06049 -0.218627,-0.124133 -0.326172,-0.189453 2.144318,-1.882717 3.448875,-4.693317 3.580078,-7.712891 z" sodipodi:nodetypes="ssssscccccccccccccccccccccccccccc" />
</svg>

<svg height="24" width="24" xmlns="http://www.w3.org/2000/svg"><path style="color:#000;fill:gray;stroke-width:2;stroke-linecap:square;stroke-linejoin:round;-inkscape-stroke:none" d="M11.5 2a9.5 9.5 0 1 0 0 19 9.5 9.5 0 0 0 0-19zm1.238 1.094A8.5 8.5 0 0 1 19.984 11h-3.998c-.13-3.02-1.432-5.834-3.576-7.717a8.25 8.25 0 0 1 .328-.19zm-2.47.004c.116.063.229.13.341.199C8.462 5.173 7.152 7.98 7.014 11H3.039a8.5 8.5 0 0 1 7.229-7.902zm1.23.824C13.55 5.57 14.845 8.164 14.986 11H8.014c.14-2.836 1.434-5.43 3.484-7.078zM3.039 12h3.975c.138 3.025 1.454 5.836 3.609 7.713-.107.066-.216.13-.326.191A8.5 8.5 0 0 1 3.039 12zm4.975 0h6.972c-.136 2.836-1.426 5.433-3.474 7.086C9.454 17.438 8.156 14.84 8.014 12zm7.972 0h3.975a8.5 8.5 0 0 1-7.229 7.902 8.24 8.24 0 0 1-.326-.19c2.145-1.882 3.45-4.692 3.58-7.712z"/></svg>
